osmic-derivate/export_paws/symbols/entrance-main-16.svg

<?xml version='1.0' encoding='utf-8'?>
<svg xmlns:dc="http://purl.org/dc/elements/1.1/" xmlns:cc="http://creativecommons.org/ns#" xmlns:rdf="http://www.w3.org/1999/02/22-rdf-syntax-ns#" xmlns="http://www.w3.org/2000/svg" version="1.1" width="100%" height="100%" viewBox="0 0 16 16" id="svg2">
  <metadata id="metadata8">
    <rdf:RDF>
      <cc:Work rdf:about="">
        <dc:format>image/svg+xml</dc:format>
        <dc:type rdf:resource="http://purl.org/dc/dcmitype/StillImage"/>
        <dc:title/>
      </cc:Work>
    </rdf:RDF>
  </metadata>
  <defs id="defs6"/>
  <rect style="fill:none;stroke:none;visibility:hidden" id="canvas" y="0" x="0" height="16" width="16"/>
  <path style="fill:#734a08;fill-opacity:1" d="M4.0 0.0C4.0 1.3333333 4.0 2.6666667 4.0 4.0C4.6666667 4.0 5.3333333 4.0 6.0 4.0C6.0 3.3333333 6.0 2.6666667 6.0 2.0C8.0 2.0 10.0 2.0 12.0 2.0C12.0 5.3333333 12.0 8.6666667 12.0 12.0C10.0 12.0 8.0 12.0 6.0 12.0C6.0 11.333333 6.0 10.666667 6.0 10.0C5.3333333 10.0 4.6666667 10.0 4.0 10.0C4.0 11.333333 4.0 12.666667 4.0 14.0C7.3333333 14.0 10.666667 14.0 14.0 14.0C14.0 9.3333333 14.0 4.6666667 14.0 0.0C10.666667 0.0 7.3333333 0.0 4.0 0.0ZM7.0 3.5C7.0 4.5 7.0 5.25 7.0 6.0C5.0 6.0 3.0 6.0 1.0 6.0C1.0 6.3333333 1.0 7.1666667 1.0 8.0C3.0 8.0 5.0 8.0 7.0 8.0C7.0 9.0 7.0 9.75 7.0 10.5C8.3333333 9.3333333 9.6666667 8.1666667 11.0 7.0C9.6666667 5.8333333 8.3333333 4.6666667 7.0 3.5Z" id="entrance-main" transform="translate(1,1)"/>
</svg>

<?xml version='1.0' encoding='utf-8'?>
<svg xmlns:dc="http://purl.org/dc/elements/1.1/" xmlns:cc="http://creativecommons.org/ns#" xmlns:rdf="http://www.w3.org/1999/02/22-rdf-syntax-ns#" xmlns="http://www.w3.org/2000/svg" version="1.1" width="100%" height="100%" viewBox="0 0 16 16" id="svg2">
  <metadata id="metadata8">
    <rdf:RDF>
      <cc:Work rdf:about="">
        <dc:format>image/svg+xml</dc:format>
        <dc:type rdf:resource="http://purl.org/dc/dcmitype/StillImage"/>
        <dc:title/>
      </cc:Work>
    </rdf:RDF>
  </metadata>
  <defs id="defs6"/>
  <rect width="16" height="16" x="0" y="0" id="canvas" style="fill:none;stroke:none;visibility:hidden"/>
  <path d="m 4,0 0,4 2,0 0,-2 6,0 0,10 -6,0 0,-2 -2,0 0,4 10,0 0,-14 z m 3,3.5 0,2.25 -6,0 0,2.5 6,0 0,2.25 4,-3.5 z" id="entrance-main" style="fill:#734a08;fill-opacity:1" transform="translate(1,1)"/>
</svg>
